img/icons/practicum.svg

<svg xmlns="http://www.w3.org/2000/svg" width="45" height="61" viewBox="0 0 45 61"><path d="M11.008 21.074a9.153 9.153 0 0 0 4.758 1.336c1.645 0 3.29-.445 4.757-1.336 3.491-2.119 5.384-6.312 5.194-11.502-.201-5.484-4.088-8.496-8.139-9.281-.04-.01-.501-.077-.971-.131a12.02 12.02 0 0 0-1.53-.021c-.217.019-.439.04-.593.063-4.236.617-8.46 3.648-8.67 9.371-.19 5.189 1.703 9.382 5.194 11.501zm7.396-17.675c2.45.889 4.455 2.935 4.577 6.277l.006.178c-2.258.647-4.65.011-6.371-1.689.873-1.361 1.48-2.973 1.788-4.766zM8.583 9.181c.398-4.139 3.797-6.135 7.132-6.292-.332 2.007-1.064 3.42-1.856 4.403-.036.039-.811.875-1.15 1.142a6.511 6.511 0 0 1-4.164 1.412c.001-.056.023-.503.038-.665zm5.799 1.469c.149-.119.295-.241.437-.367 2.175 2.091 5.096 2.992 7.961 2.485-.477 2.661-1.743 4.74-3.655 5.9a6.45 6.45 0 0 1-6.719 0c-1.941-1.178-3.217-3.302-3.676-6.023a9.235 9.235 0 0 0 5.652-1.995zm30.305 26.887l-.543 4.96c-.084.769-.76 1.321-1.512 1.235-.752-.086-1.293-.778-1.209-1.545l.108-.989-3.847 3.932a10.909 10.909 0 0 1 1.196 4.985c0 5.933-4.724 10.759-10.53 10.759-5.806 0-10.529-4.826-10.529-10.759 0-5.934 4.723-10.761 10.529-10.761 1.262 0 2.496.226 3.67.672a1.41 1.41 0 0 1 .806 1.799 1.36 1.36 0 0 1-1.76.823 7.628 7.628 0 0 0-2.716-.496c-4.296 0-7.791 3.572-7.791 7.963 0 4.39 3.495 7.961 7.791 7.961 4.297 0 7.792-3.571 7.792-7.961 0-.993-.179-1.966-.523-2.875l-1.875 1.917c-.257.262-.605.41-.968.41h-4.283l-2.883 2.946a1.348 1.348 0 0 1-1.936-.001 1.42 1.42 0 0 1 0-1.978l3.284-3.356c.257-.263.605-.41.968-.41h4.282l7.387-7.549-.967.11c-.751.086-1.428-.469-1.513-1.236-.083-.768.458-1.463 1.209-1.548 0 0 4.893-.573 4.915-.573h.003c.228 0 .461.039.677.144.524.258.832.831.768 1.421zm-27.47-4.369a1.42 1.42 0 0 1-.215-1.967l2.057-2.631a12.032 12.032 0 0 0-3.293-.462 12.036 12.036 0 0 0-3.293.461l2.057 2.63a1.419 1.419 0 0 1-.215 1.964 1.35 1.35 0 0 1-1.925-.224l-2.523-3.235c-1.756 1.104-3.104 2.781-3.529 5.126l-2.92 16.112h10.101c.756 0 1.369.627 1.369 1.398 0 .773-.613 1.4-1.369 1.4H1.773c-.406 0-.792-.147-1.052-.467a1.339 1.339 0 0 1-.294-1.112L3.646 34.37c1.128-6.222 6.861-9.03 12.071-9.03H15.817c5.21 0 10.942 2.807 12.07 9.03l.03.147c.137.76-.354 1.49-1.098 1.631a1.374 1.374 0 0 1-1.595-1.122l-.029-.162c-.425-2.345-1.774-4.038-3.53-5.144l-2.524 3.228a1.35 1.35 0 0 1-1.924.22z" fill="#208BCE"/></svg>

<svg version="1.1" xmlns="http://www.w3.org/2000/svg" xmlns:xlink="http://www.w3.org/1999/xlink" width="45" height="61" viewBox="0 0 45 61"><path id="practicum" d="M11.008,21.074 C12.475,21.965 14.120,22.410 15.766,22.410 C17.411,22.410 19.056,21.965 20.523,21.074 C24.014,18.955 25.907,14.762 25.717,9.572 C25.516,4.088 21.629,1.076 17.578,0.291 C17.538,0.281 17.077,0.214 16.607,0.160 C16.312,0.126 15.440,0.109 15.077,0.139 C14.860,0.158 14.638,0.179 14.484,0.202 C10.248,0.819 6.024,3.850 5.814,9.573 C5.624,14.762 7.517,18.955 11.008,21.074 zM18.404,3.399 C20.854,4.288 22.859,6.334 22.981,9.676 C22.983,9.736 22.985,9.795 22.987,9.854 C20.729,10.501 18.337,9.865 16.616,8.165 C17.489,6.804 18.096,5.192 18.404,3.399 zM8.583,9.181 C8.981,5.042 12.380,3.046 15.715,2.889 C15.383,4.896 14.651,6.309 13.859,7.292 C13.823,7.331 13.048,8.167 12.709,8.434 C11.506,9.384 10.033,9.876 8.545,9.846 C8.546,9.790 8.568,9.343 8.583,9.181 zM14.382,10.650 C14.531,10.531 14.677,10.409 14.819,10.283 C16.994,12.374 19.915,13.275 22.780,12.768 C22.303,15.429 21.037,17.508 19.125,18.668 C17.053,19.926 14.478,19.927 12.406,18.668 C10.465,17.490 9.189,15.366 8.730,12.645 C10.755,12.631 12.746,11.940 14.382,10.650 zM44.687,37.537 C44.687,37.537 44.144,42.497 44.144,42.497 C44.060,43.266 43.384,43.818 42.632,43.732 C41.880,43.646 41.339,42.954 41.423,42.187 C41.423,42.187 41.531,41.198 41.531,41.198 C41.531,41.198 37.684,45.130 37.684,45.130 C38.469,46.661 38.880,48.365 38.880,50.115 C38.880,56.048 34.156,60.874 28.350,60.874 C22.544,60.874 17.821,56.048 17.821,50.115 C17.821,44.181 22.544,39.354 28.350,39.354 C29.612,39.354 30.846,39.580 32.020,40.026 C32.728,40.296 33.089,41.101 32.826,41.825 C32.562,42.549 31.774,42.918 31.066,42.648 C30.199,42.319 29.285,42.152 28.350,42.152 C24.054,42.152 20.559,45.724 20.559,50.115 C20.559,54.505 24.054,58.076 28.350,58.076 C32.647,58.076 36.142,54.505 36.142,50.115 C36.142,49.122 35.963,48.149 35.619,47.240 C35.619,47.240 33.744,49.157 33.744,49.157 C33.487,49.419 33.139,49.567 32.776,49.567 C32.776,49.567 28.493,49.567 28.493,49.567 C28.493,49.567 25.610,52.513 25.610,52.513 C25.075,53.059 24.208,53.059 23.674,52.512 C23.139,51.966 23.139,51.080 23.674,50.534 C23.674,50.534 26.958,47.178 26.958,47.178 C27.215,46.915 27.563,46.768 27.926,46.768 C27.926,46.768 32.208,46.768 32.208,46.768 L39.595,39.219 C39.595,39.219 38.628,39.329 38.628,39.329 C37.877,39.415 37.200,38.860 37.115,38.093 C37.032,37.325 37.573,36.630 38.324,36.545 C38.324,36.545 43.217,35.972 43.239,35.972 C43.240,35.972 43.241,35.972 43.242,35.972 C43.470,35.972 43.703,36.011 43.919,36.116 C44.443,36.374 44.751,36.947 44.687,37.537 zM17.217,33.168 C16.626,32.686 16.530,31.805 17.002,31.201 C17.002,31.201 19.059,28.570 19.059,28.570 C17.984,28.261 16.861,28.109 15.766,28.108 C14.672,28.109 13.548,28.260 12.473,28.569 C12.473,28.569 14.530,31.199 14.530,31.199 C15.001,31.803 14.905,32.681 14.315,33.163 C13.724,33.645 12.863,33.543 12.390,32.939 C12.390,32.939 9.867,29.704 9.867,29.704 C8.111,30.808 6.763,32.485 6.338,34.830 C6.338,34.830 3.418,50.942 3.418,50.942 C3.418,50.942 13.519,50.942 13.519,50.942 C14.275,50.942 14.888,51.569 14.888,52.340 C14.888,53.113 14.275,53.740 13.519,53.740 C13.519,53.740 1.773,53.740 1.773,53.740 C1.367,53.740 0.981,53.593 0.721,53.273 C0.461,52.954 0.353,52.571 0.427,52.161 C0.427,52.161 3.646,34.370 3.646,34.370 C4.774,28.148 10.507,25.340 15.717,25.340 C15.727,25.340 15.738,25.340 15.748,25.340 C15.752,25.340 15.756,25.340 15.759,25.340 C15.759,25.340 15.774,25.340 15.774,25.340 C15.782,25.340 15.789,25.340 15.797,25.340 C15.804,25.340 15.810,25.340 15.817,25.340 C21.027,25.340 26.759,28.147 27.887,34.370 C27.887,34.370 27.917,34.517 27.917,34.517 C28.054,35.277 27.563,36.007 26.819,36.148 C26.077,36.287 25.362,35.786 25.224,35.026 C25.224,35.026 25.195,34.864 25.195,34.864 C24.770,32.519 23.421,30.826 21.665,29.720 C21.665,29.720 19.141,32.948 19.141,32.948 C18.669,33.551 17.808,33.650 17.217,33.168 z" fill="#208BCE" /></svg>
